src/lib/packages/icons/src/assets/line/home-roof-star.svg

<svg width="24" height="24" viewBox="0 0 24 24" fill="none" xmlns="http://www.w3.org/2000/svg">
<path d="M21.477 9.08502L14.0649 2.98907C12.8679 2.00707 11.133 2.00607 9.93598 2.98907L2.52399 9.08404C2.20499 9.34704 2.15796 9.81907 2.42096 10.1401C2.68396 10.4611 3.15699 10.5051 3.47699 10.2431L4.24994 9.60711V18.0001C4.24994 20.4181 5.58194 21.7501 7.99994 21.7501H15.9999C18.4179 21.7501 19.7499 20.4181 19.7499 18.0001V9.60711L20.5229 10.2431C20.6629 10.3581 20.8319 10.414 20.9999 10.414C21.2159 10.414 21.4309 10.321 21.5789 10.141C21.8429 9.82005 21.796 9.34802 21.477 9.08502ZM18.2499 18.0001C18.2499 19.5771 17.5769 20.2501 15.9999 20.2501H7.99994C6.42294 20.2501 5.74994 19.5771 5.74994 18.0001V8.37408L10.889 4.14911C11.532 3.62011 12.469 3.62011 13.112 4.14911L18.2509 8.37506V18.0001H18.2499ZM11.9999 8.75006C11.5189 8.75006 11.087 9.0171 10.874 9.4461L10.0219 11.1591L8.04694 11.444C7.58094 11.511 7.2029 11.8312 7.0589 12.2772C6.9139 12.7222 7.03491 13.2012 7.37091 13.5272L8.79499 14.9041L8.47089 16.7801C8.38889 17.2521 8.57898 17.7209 8.96698 18.0049C9.35598 18.2889 9.86296 18.328 10.291 18.105L11.999 17.2151L13.708 18.106C13.893 18.202 14.092 18.2501 14.291 18.2501C14.552 18.2501 14.8109 18.1681 15.0309 18.0071C15.4189 17.7241 15.6089 17.256 15.5279 16.782L15.2029 14.9041L16.6269 13.5272C16.9639 13.2012 17.0839 12.7222 16.9389 12.2772C16.7939 11.8302 16.417 11.511 15.951 11.444L13.9759 11.1591L13.124 9.44708C12.913 9.01708 12.4809 8.75006 11.9999 8.75006ZM13.6199 12.6231L15.1739 12.847L14.056 13.929C13.765 14.21 13.632 14.615 13.701 15.013L13.967 16.5491L12.5699 15.8201C12.3909 15.7261 12.1959 15.68 12.0009 15.68C11.8069 15.68 11.612 15.7261 11.436 15.8191L10.0369 16.5482L10.3029 15.012C10.3709 14.614 10.2389 14.209 9.94892 13.929L8.8299 12.847L10.3819 12.6231C10.7789 12.5661 11.124 12.3181 11.305 11.9571L12.004 10.5501L12.7039 11.9581C12.8799 12.3181 13.2249 12.5671 13.6199 12.6231Z" fill="currentColor"/>
</svg>

<svg xmlns="http://www.w3.org/2000/svg" width="24" height="24" fill="none"><path fill="currentColor" d="m21.477 9.085-7.412-6.096a3.26 3.26 0 0 0-4.129 0L2.524 9.084a.751.751 0 0 0 .953 1.16l.773-.637V18c0 2.418 1.332 3.75 3.75 3.75h8c2.418 0 3.75-1.332 3.75-3.75V9.607l.773.636a.749.749 0 0 0 1.056-.102.75.75 0 0 0-.102-1.056ZM18.25 18c0 1.577-.673 2.25-2.25 2.25H8c-1.577 0-2.25-.673-2.25-2.25V8.374l5.139-4.225a1.755 1.755 0 0 1 2.223 0l5.139 4.226V18h-.001ZM12 8.75a1.25 1.25 0 0 0-1.126.696l-.852 1.713-1.975.285a1.213 1.213 0 0 0-.988.833 1.21 1.21 0 0 0 .312 1.25l1.424 1.377-.324 1.876c-.082.472.108.94.496 1.225.389.284.896.323 1.324.1l1.708-.89 1.709.891a1.25 1.25 0 0 0 1.323-.099c.388-.283.578-.751.497-1.225l-.325-1.878 1.424-1.377c.337-.326.457-.805.312-1.25a1.212 1.212 0 0 0-.988-.833l-1.975-.285-.852-1.712A1.244 1.244 0 0 0 12 8.75Zm1.62 3.873 1.554.224-1.118 1.082a1.217 1.217 0 0 0-.355 1.084l.266 1.536-1.397-.729a1.221 1.221 0 0 0-1.134 0l-1.4.728.267-1.536a1.219 1.219 0 0 0-.354-1.083l-1.12-1.082 1.553-.224c.397-.057.742-.305.923-.666l.699-1.407.7 1.408c.176.36.52.61.916.665Z"/></svg>
